images/lean_to.svg

<?xml version="1.0" encoding="UTF-8" standalone="no"?>
<svg xmlns:dc="http://purl.org/dc/elements/1.1/" xmlns:cc="http://creativecommons.org/ns#" xmlns:rdf="http://www.w3.org/1999/02/22-rdf-syntax-ns#" xmlns:svg="http://www.w3.org/2000/svg" xmlns="http://www.w3.org/2000/svg" xmlns:sodipodi="http://sodipodi.sourceforge.net/DTD/sodipodi-0.dtd" xmlns:inkscape="http://www.inkscape.org/namespaces/inkscape" width="32" height="32" id="svg2" sodipodi:version="0.32" inkscape:version="1.0.1 (3bc2e813f5, 2020-09-07)" version="1.0" sodipodi:docname="lean_to.svg" inkscape:output_extension="org.inkscape.output.svg.inkscape" inkscape:export-filename="/home/rudolf/Downloads/mapicons/Lean_to_blue_p16.png" inkscape:export-xdpi="89.736397" inkscape:export-ydpi="89.736397">
  <title id="title3212">Map icon for lean_to</title>
  <metadata id="metadata10">
    <rdf:RDF>
      <cc:Work rdf:about="">
        <dc:format>image/svg+xml</dc:format>
        <dc:type rdf:resource="http://purl.org/dc/dcmitype/StillImage" />
        <cc:license rdf:resource="http://creativecommons.org/publicdomain/zero/1.0/" />
        <dc:title>Map icon for lean_to</dc:title>
        <dc:creator>
          <cc:Agent>
            <dc:title>Rudolf</dc:title>
          </cc:Agent>
        </dc:creator>
        <dc:date>2012-04-05</dc:date>
      </cc:Work>
      <cc:License rdf:about="http://creativecommons.org/publicdomain/zero/1.0/">
        <cc:permits rdf:resource="http://creativecommons.org/ns#Reproduction" />
        <cc:permits rdf:resource="http://creativecommons.org/ns#Distribution" />
        <cc:permits rdf:resource="http://creativecommons.org/ns#DerivativeWorks" />
      </cc:License>
    </rdf:RDF>
  </metadata>
  <sodipodi:namedview inkscape:window-height="1056" inkscape:window-width="1847" inkscape:pageshadow="2" inkscape:pageopacity="0.0" guidetolerance="10.0" gridtolerance="10.0" objecttolerance="10.0" borderopacity="1.0" bordercolor="#666666" pagecolor="#ffffff" id="base" showgrid="true" inkscape:snap-global="true" inkscape:zoom="19.666407" inkscape:cx="-5.5498229" inkscape:cy="6.0228135" inkscape:window-x="0" inkscape:window-y="0" inkscape:window-maximized="1" inkscape:current-layer="svg2" showguides="true" inkscape:guide-bbox="true" inkscape:snap-bbox="false" inkscape:snap-grids="true" inkscape:snap-page="false" inkscape:snap-nodes="true" inkscape:object-nodes="true" inkscape:snap-to-guides="false" inkscape:snap-center="true" inkscape:snap-object-midpoints="true" inkscape:snap-midpoints="true" inkscape:snap-smooth-nodes="true" inkscape:object-paths="true" inkscape:snap-intersection-paths="true" fit-margin-top="0" fit-margin-left="0" fit-margin-right="0" fit-margin-bottom="0" inkscape:document-rotation="0" inkscape:pagecheckerboard="true">
    <inkscape:grid type="xygrid" id="grid2383" visible="true" enabled="true" empspacing="2" snapvisiblegridlinesonly="true" units="px" spacingx="1" spacingy="1" />
  </sodipodi:namedview>
  <defs id="defs4">
    <inkscape:perspective sodipodi:type="inkscape:persp3d" inkscape:vp_x="0 : 526.18109 : 1" inkscape:vp_y="0 : 1000 : 0" inkscape:vp_z="744.09448 : 526.18109 : 1" inkscape:persp3d-origin="372.04724 : 350.78739 : 1" id="perspective10" />
    <inkscape:perspective id="perspective2461" inkscape:persp3d-origin="10 : 6.6666667 : 1" inkscape:vp_z="20 : 10 : 1" inkscape:vp_y="0 : 1000 : 0" inkscape:vp_x="0 : 10 : 1" sodipodi:type="inkscape:persp3d" />
    <inkscape:perspective id="perspective2466" inkscape:persp3d-origin="400 : 200 : 1" inkscape:vp_z="800 : 300 : 1" inkscape:vp_y="0 : 1000 : 0" inkscape:vp_x="0 : 300 : 1" sodipodi:type="inkscape:persp3d" />
  </defs>
  <path id="path3612" style="color:#000000;font-style:normal;font-variant:normal;font-weight:normal;font-stretch:normal;font-size:medium;line-height:normal;font-family:sans-serif;font-variant-ligatures:normal;font-variant-position:normal;font-variant-caps:normal;font-variant-numeric:normal;font-variant-alternates:normal;font-variant-east-asian:normal;font-feature-settings:normal;font-variation-settings:normal;text-indent:0;text-align:start;text-decoration:none;text-decoration-line:none;text-decoration-style:solid;text-decoration-color:#000000;letter-spacing:normal;word-spacing:normal;text-transform:none;writing-mode:lr-tb;direction:ltr;text-orientation:mixed;dominant-baseline:auto;baseline-shift:baseline;text-anchor:start;white-space:normal;shape-padding:0;shape-margin:0;inline-size:0;clip-rule:nonzero;display:inline;overflow:visible;visibility:visible;isolation:auto;mix-blend-mode:normal;color-interpolation:sRGB;color-interpolation-filters:linearRGB;solid-color:#000000;solid-opacity:1;vector-effect:none;fill:#000305;fill-opacity:1;fill-rule:nonzero;stroke:#ffffff;stroke-width:3;stroke-linecap:butt;stroke-linejoin:round;stroke-miterlimit:4;stroke-dasharray:none;stroke-dashoffset:0;stroke-opacity:0.5;color-rendering:auto;image-rendering:auto;shape-rendering:auto;text-rendering:auto;enable-background:accumulate;stop-color:#000000" d="M 3.2519531 -0.62695312 A 0.333 0.333 0 0 0 3.046875 -0.52929688 L 0.703125 1.8144531 A 0.333 0.333 0 0 0 0.703125 2.2851562 A 0.333 0.333 0 0 0 1.1738281 2.2851562 L 3.5175781 -0.05859375 A 0.333 0.333 0 0 0 3.5175781 -0.52929688 A 0.333 0.333 0 0 0 3.3007812 -0.62695312 A 0.333 0.333 0 0 0 3.2519531 -0.62695312 z M 6.5332031 -0.62695312 A 0.333 0.333 0 0 0 6.328125 -0.52929688 L 4.921875 0.87695312 A 0.333 0.333 0 0 0 4.921875 1.3476562 A 0.333 0.333 0 0 0 5.3925781 1.3476562 L 6.7988281 -0.05859375 A 0.333 0.333 0 0 0 6.7988281 -0.52929688 A 0.333 0.333 0 0 0 6.5820312 -0.62695312 A 0.333 0.333 0 0 0 6.5332031 -0.62695312 z M 10.751953 -0.62695312 A 0.333 0.333 0 0 0 10.546875 -0.52929688 L 8.671875 1.3457031 A 0.333 0.333 0 0 0 8.671875 1.8164062 A 0.333 0.333 0 0 0 9.1425781 1.8164062 L 11.017578 -0.05859375 A 0.333 0.333 0 0 0 11.017578 -0.52929688 A 0.333 0.333 0 0 0 10.800781 -0.62695312 A 0.333 0.333 0 0 0 10.751953 -0.62695312 z M 14.501953 -0.62695312 A 0.333 0.333 0 0 0 14.296875 -0.52929688 L 12.890625 0.87695312 A 0.333 0.333 0 0 0 12.890625 1.3476562 A 0.333 0.333 0 0 0 13.361328 1.3476562 L 14.767578 -0.05859375 A 0.333 0.333 0 0 0 14.767578 -0.52929688 A 0.333 0.333 0 0 0 14.550781 -0.62695312 A 0.333 0.333 0 0 0 14.501953 -0.62695312 z M 4 3 A 1.0001 1.0001 0 0 0 3.2929688 3.2929688 L 0.29296875 6.2929688 A 1.0001 1.0001 0 0 0 1 8 L 2.0625 8 L 2.0625 15 L 2.0625 15.9375 L 3.9375 15.9375 L 3.9375 15 L 3.9375 8 L 11 8 L 11 15 L 11 16 L 13 16 L 13 15 L 13 8 L 14 8 A 1.0001 1.0001 0 0 0 14.707031 6.2929688 L 11.707031 3.2929688 A 1.0001 1.0001 0 0 0 11 3 L 4 3 z " />
  <path id="path3643" style="color:#000000;font-style:normal;font-variant:normal;font-weight:normal;font-stretch:normal;font-size:medium;line-height:normal;font-family:sans-serif;font-variant-ligatures:normal;font-variant-position:normal;font-variant-caps:normal;font-variant-numeric:normal;font-variant-alternates:normal;font-variant-east-asian:normal;font-feature-settings:normal;font-variation-settings:normal;text-indent:0;text-align:start;text-decoration:none;text-decoration-line:none;text-decoration-style:solid;text-decoration-color:#000000;letter-spacing:normal;word-spacing:normal;text-transform:none;writing-mode:lr-tb;direction:ltr;text-orientation:mixed;dominant-baseline:auto;baseline-shift:baseline;text-anchor:start;white-space:normal;shape-padding:0;shape-margin:0;inline-size:0;clip-rule:nonzero;display:inline;overflow:visible;visibility:visible;isolation:auto;mix-blend-mode:normal;color-interpolation:sRGB;color-interpolation-filters:linearRGB;solid-color:#000000;solid-opacity:1;vector-effect:none;fill:#000305;fill-opacity:1;fill-rule:nonzero;stroke:none;stroke-width:2;stroke-linecap:butt;stroke-linejoin:round;stroke-miterlimit:4;stroke-dasharray:none;stroke-dashoffset:0;stroke-opacity:1;color-rendering:auto;image-rendering:auto;shape-rendering:auto;text-rendering:auto;enable-background:accumulate;stop-color:#000000" d="M 3.2519531 -0.62695312 A 0.333 0.333 0 0 0 3.046875 -0.52929688 L 0.703125 1.8144531 A 0.333 0.333 0 0 0 0.703125 2.2851562 A 0.333 0.333 0 0 0 1.1738281 2.2851562 L 3.5175781 -0.05859375 A 0.333 0.333 0 0 0 3.5175781 -0.52929688 A 0.333 0.333 0 0 0 3.3007812 -0.62695312 A 0.333 0.333 0 0 0 3.2519531 -0.62695312 z M 6.5332031 -0.62695312 A 0.333 0.333 0 0 0 6.328125 -0.52929688 L 4.921875 0.87695312 A 0.333 0.333 0 0 0 4.921875 1.3476562 A 0.333 0.333 0 0 0 5.3925781 1.3476562 L 6.7988281 -0.05859375 A 0.333 0.333 0 0 0 6.7988281 -0.52929688 A 0.333 0.333 0 0 0 6.5820312 -0.62695312 A 0.333 0.333 0 0 0 6.5332031 -0.62695312 z M 10.751953 -0.62695312 A 0.333 0.333 0 0 0 10.546875 -0.52929688 L 8.671875 1.3457031 A 0.333 0.333 0 0 0 8.671875 1.8164062 A 0.333 0.333 0 0 0 9.1425781 1.8164062 L 11.017578 -0.05859375 A 0.333 0.333 0 0 0 11.017578 -0.52929688 A 0.333 0.333 0 0 0 10.800781 -0.62695312 A 0.333 0.333 0 0 0 10.751953 -0.62695312 z M 14.501953 -0.62695312 A 0.333 0.333 0 0 0 14.296875 -0.52929688 L 12.890625 0.87695312 A 0.333 0.333 0 0 0 12.890625 1.3476562 A 0.333 0.333 0 0 0 13.361328 1.3476562 L 14.767578 -0.05859375 A 0.333 0.333 0 0 0 14.767578 -0.52929688 A 0.333 0.333 0 0 0 14.550781 -0.62695312 A 0.333 0.333 0 0 0 14.501953 -0.62695312 z M 4 3 A 1.0001 1.0001 0 0 0 3.2929688 3.2929688 L 0.29296875 6.2929688 A 1.0001 1.0001 0 0 0 1 8 L 2.0625 8 L 2.0625 15 L 2.0625 15.9375 L 3.9375 15.9375 L 3.9375 15 L 3.9375 8 L 11 8 L 11 15 L 11 16 L 13 16 L 13 15 L 13 8 L 14 8 A 1.0001 1.0001 0 0 0 14.707031 6.2929688 L 11.707031 3.2929688 A 1.0001 1.0001 0 0 0 11 3 L 4 3 z " />
</svg>

<svg xmlns="http://www.w3.org/2000/svg" width="32" height="32" version="1.0">
    <path d="M3.252-.627a.333.333 0 00-.205.098L.703 1.814a.333.333 0 000 .471.333.333 0 00.47 0L3.519-.059a.333.333 0 000-.47.333.333 0 00-.217-.098.333.333 0 00-.049 0zm3.281 0a.333.333 0 00-.205.098L4.922.877a.333.333 0 000 .47.333.333 0 00.47 0L6.8-.058a.333.333 0 000-.47.333.333 0 00-.217-.098.333.333 0 00-.049 0zm4.219 0a.333.333 0 00-.205.098L8.672 1.346a.333.333 0 000 .47.333.333 0 00.47 0l1.876-1.875a.333.333 0 000-.47.333.333 0 00-.217-.098.333.333 0 00-.049 0zm3.75 0a.333.333 0 00-.205.098L12.89.877a.333.333 0 000 .47.333.333 0 00.47 0l1.407-1.406a.333.333 0 000-.47.333.333 0 00-.217-.098.333.333 0 00-.049 0zM4 3a1 1 0 00-.707.293l-3 3A1 1 0 001 8h1.063v7.938h1.874V8H11v8h2V8h1a1 1 0 00.707-1.707l-3-3A1 1 0 0011 3H4z" color="#000" fill="#000305" stroke="#fff" stroke-width="3" stroke-linejoin="round" stroke-opacity=".5"/>
    <path d="M3.252-.627a.333.333 0 00-.205.098L.703 1.814a.333.333 0 000 .471.333.333 0 00.47 0L3.519-.059a.333.333 0 000-.47.333.333 0 00-.217-.098.333.333 0 00-.049 0zm3.281 0a.333.333 0 00-.205.098L4.922.877a.333.333 0 000 .47.333.333 0 00.47 0L6.8-.058a.333.333 0 000-.47.333.333 0 00-.217-.098.333.333 0 00-.049 0zm4.219 0a.333.333 0 00-.205.098L8.672 1.346a.333.333 0 000 .47.333.333 0 00.47 0l1.876-1.875a.333.333 0 000-.47.333.333 0 00-.217-.098.333.333 0 00-.049 0zm3.75 0a.333.333 0 00-.205.098L12.89.877a.333.333 0 000 .47.333.333 0 00.47 0l1.407-1.406a.333.333 0 000-.47.333.333 0 00-.217-.098.333.333 0 00-.049 0zM4 3a1 1 0 00-.707.293l-3 3A1 1 0 001 8h1.063v7.938h1.874V8H11v8h2V8h1a1 1 0 00.707-1.707l-3-3A1 1 0 0011 3H4z" color="#000" fill="#000305"/>
</svg>
